X: 6
M: 6/8
L: 1/8
K: Dmaj
d>ef edc | B<dB A2G | FdF E2c |1 d3 dzA :|2 d3 dzd ||
f>ga afd | f3 a2c | B>cd e2e | fed c2A |\
afd ecA | B/2c/2dB A2F | G>FE Ddc | d3 dzd :|


